docs/abcrace/images/upper/B.svg

<svg xmlns="http://www.w3.org/2000/svg" width="630" height="850" viewBox="-10 0 630 850"><path fill="currentColor" d="M52 0h242q259 0 282 172 2 18 2 37 0 129-113 170-20 7-42 11v4q173 31 194 170 3 21 3 43 0 159-143 216-70 27-165 27H51q-44 0-57-37-4-11-4-22V59q0-41 38-55 12-4 24-4Zm42 88v269h195q180-1 181-142 0-103-110-122-29-5-65-5Zm0 356v318h222q168 0 191-117 4-19 4-38-2-162-196-163z"/></svg>

<svg xmlns="http://www.w3.org/2000/svg" xmlns:svg="http://www.w3.org/2000/svg" id="svg4" width="630" height="850" version="1.1" viewBox="-10 0 630 850"><path id="path2" fill="currentColor" d="m 52,0 h 242 q 259,0 282,172 2,18 2,37 0,129 -113,170 -20,7 -42,11 v 4 q 173,31 194,170 3,21 3,43 0,159 -143,216 -70,27 -165,27 H 51 q -44,0 -57,-37 -4,-11 -4,-22 V 59 Q -10,18 28,4 40,0 52,0 Z M 94,88 V 357 H 289 Q 469,356 470,215 470,112 360,93 331,88 295,88 Z m 0,356 v 318 h 222 q 168,0 191,-117 4,-19 4,-38 -2,-162 -196,-163 z"/></svg>
